X:376
T:Road to Columbus
C:Based on Kenny Baker's solo on "Baker Plays Monroe"
N:Transcribed by Jeff Hoelter
R:bluegrass
L:1/8
Q:1/4=230
M:4/4
K:A
z4 zE FA | =c2 c2 ^cB AF | EF AB cB AF | A3A (3EFE C2 | A,4 E2 EE | "A"C2 A,3C EF | 
A2 AA AA AA | "D"F2 [d2A2] [dA][dA] [d2A2] | [=c2A2] [cA][cA] [c2A2] AB | "A"ce cB AB AF | 
EF EC CC CC | "E"C2 B,4 zC | B,4 E2 EE | "A"C2 A,3C EF | A2 AA AA AA | "D"F2 [d2A2] [dA][dA] [d2A2] | 
[=c2A2] [cA][cA] [c2A2] AB | "A"ce cB AB AF | "E"EF AB cB AB | "A"A2 AA AA AB | 
A4 EF AB | "A"c2 [cA][cA] [cA]B cB | A2 AA B2 A2 | "D"F2 A2 AA AB | A2 AA EF AB | 
"A"c2 [cA][cA] [cA]B cB | A2 cc cc cc | "E"c2 [B2G2] [BG][BG] [BG][cG] | [B4G4] EF AB | 
"A"c2 [cA][cA] [cA]B cB | A2 AA B2 A2 | "D"F2 A2 AA AB | A6 fg | "A"ag ab af ec | 
"E"BA cB AF EF | "A"AB cB AF EC | A,8 | z8 | "Alternate B Part"z4 e2 {=g}a2 | 
{b}"A"c'2 [c'a][c'a] [c'a]b c'b | a2 aa b2 a2 | "D"f2 a2 aa ab | a2 aa ef ab | 
"A"c'2 [c'a][c'a] [c'a]b c'b | a2 c'c' c'c' c'c' | "E"c'2 [b2g2] [bg][bg] [bg][c'g] | 
[b4g4] ef ab | "A"c'2 [c'a][c'a] [c'a]b c'b | a2 aa b2 a2 | "D"f2 a2 aa ab | a6 fg | 
"A"ag ab af ec | "E"BA cB AF EF | "A"AB cB AF EC | A,8 | 


